!!!COM: Louise Reichardt
!!!CNT: Deutsch
!!!TXO: Deutsch
!!!OTL: Fru2hlingsblumen
!!!LYR: Aus des Knaben Wunderhorn (eds. von Arnim and Brentano)
!!!OPR: 
!!!OPS: No opus information available
!!!ONM: No. 1
!!!ENC: Ben Fuhrman
!!!YOR: Louise Reichardt: Songs
!!!YOR: New York, Da Capo Press, 1981
!!!ODT: 1800 - 1826
!!NB: Only vocal melody encoded.
!!NB: First instance of melodic material only encoded.
!!created: 2/17/10 1:09PM
!!proofed and posted: 2/17/10 1:09PM
**kern	**silbe
*clef G2	*
*k[f#]	*
*M6/8	*
*MM[Fro2hlich doch nicht geschwind]	*
=1	=1
{4b	{Herz-
8b	-lich
8cc	thut
8b	mich
8cc	er-
=2	=2
4.dd	-freu-
4b	-en
8g	die
=3	=3
8.cc	fro2h-
16dd	-li-
8cc	-che
4b	Som-
8b	-mer-
=4	=4
[4.a	-zeit.
4a]}	|}
8r	.
=5	=5
{8b	{all
8a	mein
8b	Ge-
(8cc	-blu2t
8b)	|
8cc	er
=6	=6
[4.dd	neu-
8dd]	|
(ccq	-en,
8b)	|
(aq	der
8g)	|
=7	=7
4g	May
(16g	in
16a)	|
4b	Wo2l-
8a	-lust
=8	=8
[4.g	frent;
8g]}	|}
8r	.
{8d	{die
=9	=9
4a	Lerch'-
8a	-thut
(8b	sich
8a)	|
8b	er-
=10	=10
4.cc	-schwin-
8a	-geu
8r	.
8a	mit
=11	=11
4b	ih-
8b	-rem
4cc#	hel-
8cc#	-len
=12	=12
[4.dd	Schall
(4dd]	|
8ccn)}	|}
=13	=13
{8b	{lieb-
8a	-lich
8b	die
(8cc	Vo2-
8b)	|
8cc	-gel
=14	=14
(4.dd	sin-
8gg)	|
8dd	-gen,
8b	da-
=15	=15
4g	-zu
8g	die
(8a	Nach
8b)	|
8a	-ti-
=16	=16
4.g}	-gall.}
4.r	.
==	==
*-	*-
